svg/u1f4a7.svg

<svg viewBox="0 0 128 128" xmlns="http://www.w3.org/2000/svg">
  <path d="M63.38,4.07c-4.22,0.09-5.44,4.69-6.95,8.45S45.93,36.73,40.11,47.05s-13.7,23.84-12.58,43.17 c1.13,19.33,16.14,33.76,37.17,33.6c19.01-0.14,35.64-11.1,36.32-34.91c0.56-19.71-10.28-36.74-15.63-47.16 C82.21,35.55,71.8,14.8,70.7,12.23C68.73,7.63,67.89,3.97,63.38,4.07z" fill="#4EC1F5"/>
  <path d="M47.38,64.42c-2.96,0.13-10,9.29-10,20.84s5.45,20.08,11.4,18.86c6.9-1.41,5.77-8.45,4.36-14.08 c-1.21-4.84-3.1-10.56-3.52-15.77C49.36,70.9,50.48,64.28,47.38,64.42z" fill="#B3E2FB"/>
</svg>

<svg viewBox="0 0 128 128" xmlns="http://www.w3.org/2000/svg">
  <defs/>
  <path d="M63.38,4.07 C59.16,4.16 57.94,8.76 56.43,12.52 C54.92,16.28 45.93,36.73 40.11,47.05 C34.29,57.37 26.41,70.89 27.53,90.22 C28.66,109.55 43.67,123.98 64.7,123.82 C83.71,123.68 100.34,112.72 101.02,88.91 C101.58,69.2 90.74,52.17 85.39,41.75 C82.21,35.55 71.8,14.8 70.7,12.23 C68.73,7.63 67.89,3.97 63.38,4.07 Z" fill="#4EC1F5"/>
  <path d="M47.38,64.42 C44.42,64.55 37.38,73.71 37.38,85.26 C37.38,96.81 42.83,105.34 48.78,104.12 C55.68,102.71 54.55,95.67 53.14,90.04 C51.93,85.2 50.04,79.48 49.62,74.27 C49.36,70.9 50.48,64.28 47.38,64.42 Z" fill="#B3E2FB"/>
</svg>
